X:1
T:The Wedding Gift
R:waltz
M:3/4
L:1/8
K:D
A2|D4 DA|FA3 cA|~d4 cA|BG3 GB|
|D4 DA|FA3 cA|dB G2 (3FGF|E4 EA|
|D4 DA|FA3 cA|~d4 cA|(3Bcd z2 (3BdB|
|AF D2 DA|BG d2 (3FGF|E4 ED|D4 DA|
|f2 d2 A2|~e4 cA|~d4 cA|BG3- Ge|
|f2 d2 A2|~e4 cA|dB G2 (3FGF|E4- Ee|
|f2 d2 A2|~e4 cA|~d4 cA|(3Bcd z2 (3BdB|
|AF D2 DA|BG d2 (3FGF|E4 ED|D4 A2|